packages/tokens/icons/files/size32Px.svg

<svg viewBox="0 0 32 32" fill="none" xmlns="http://www.w3.org/2000/svg" width="1em" height="1em"><path d="M28.0625 7C28.3386 7 28.5625 6.77614 28.5625 6.5C28.5625 6.22386 28.3386 6 28.0625 6V7ZM27.9142 5.91421L27.5607 6.26777L27.9142 5.91421ZM24.7929 2.79289L24.4393 3.14645L24.7929 2.79289ZM26.5 19L16.5 19V20L26.5 20L26.5 19ZM15 17.5L15 4.5H14L14 17.5H15ZM16.5 3L24.0858 3V2L16.5 2V3ZM28 7.32843V17.5H29V7.32843L28 7.32843ZM24 3V5.5H25V3H24ZM25.5 7H28.0625V6H25.5V7ZM24.4393 3.14645L27.5607 6.26777L28.2678 5.56066L25.1464 2.43934L24.4393 3.14645ZM24 5.5C24 6.32843 24.6716 7 25.5 7V6C25.2239 6 25 5.77614 25 5.5H24ZM29 7.32843C29 6.66539 28.7366 6.0295 28.2678 5.56066L27.5607 6.26777C27.842 6.54907 28 6.9306 28 7.32843L29 7.32843ZM24.0858 3C24.2184 3 24.3456 3.05268 24.4393 3.14645L25.1464 2.43934C24.8651 2.15804 24.4836 2 24.0858 2V3ZM16.5 19C15.6716 19 15 18.3284 15 17.5H14C14 18.8807 15.1193 20 16.5 20V19ZM26.5 20C27.8807 20 29 18.8807 29 17.5H28C28 18.3284 27.3284 19 26.5 19L26.5 20ZM15 4.5C15 3.67157 15.6716 3 16.5 3V2C15.1193 2 14 3.11929 14 4.5H15Z" fill="currentColor"/><path d="M12.5 7.5L11.5 7.5C10.3954 7.5 9.5 8.39543 9.5 9.5L9.5 22.5C9.5 23.6046 10.3954 24.5 11.5 24.5L21.5 24.5C22.6046 24.5 23.5 23.6046 23.5 22.5V21.5" stroke="currentColor" stroke-linecap="round"/><path d="M7.5 12.5H6.5C5.39543 12.5 4.5 13.3954 4.5 14.5L4.5 27.5C4.5 28.6046 5.39543 29.5 6.5 29.5L16.5 29.5C17.6046 29.5 18.5 28.6046 18.5 27.5V26.5" stroke="currentColor" stroke-linecap="round"/><path d="M17.5 6.5L21.5 6.5" stroke="currentColor" stroke-linecap="round"/><path d="M17.5 9.49976L25.5 9.49976" stroke="currentColor" stroke-linecap="round"/><path d="M17.5 12.4998L25.5 12.4998M17.5 15.4998H22.5" stroke="currentColor" stroke-linecap="round"/></svg>

<svg xmlns="http://www.w3.org/2000/svg" fill="none" viewBox="0 0 32 32" width="1em" height="1em"><path fill="currentColor" d="M28.063 7a.5.5 0 0 0 0-1v1Zm-.149-1.086-.353.354.353-.354Zm-3.121-3.121-.354.353.354-.353ZM26.5 19h-10v1h10v-1ZM15 17.5v-13h-1v13h1ZM16.5 3h7.586V2H16.5v1ZM28 7.328V17.5h1V7.328h-1ZM24 3v2.5h1V3h-1Zm1.5 4h2.563V6H25.5v1Zm-1.06-3.854 3.12 3.122.708-.707-3.122-3.122-.707.707ZM24 5.5A1.5 1.5 0 0 0 25.5 7V6a.5.5 0 0 1-.5-.5h-1Zm5 1.828a2.5 2.5 0 0 0-.732-1.767l-.707.707A1.5 1.5 0 0 1 28 7.328h1ZM24.086 3a.5.5 0 0 1 .353.146l.707-.707A1.5 1.5 0 0 0 24.086 2v1ZM16.5 19a1.5 1.5 0 0 1-1.5-1.5h-1a2.5 2.5 0 0 0 2.5 2.5v-1Zm10 1a2.5 2.5 0 0 0 2.5-2.5h-1a1.5 1.5 0 0 1-1.5 1.5v1ZM15 4.5A1.5 1.5 0 0 1 16.5 3V2A2.5 2.5 0 0 0 14 4.5h1Z"/><path stroke="currentColor" stroke-linecap="round" d="M12.5 7.5h-1a2 2 0 0 0-2 2v13a2 2 0 0 0 2 2h10a2 2 0 0 0 2-2v-1"/><path stroke="currentColor" stroke-linecap="round" d="M7.5 12.5h-1a2 2 0 0 0-2 2v13a2 2 0 0 0 2 2h10a2 2 0 0 0 2-2v-1m-1-20h4m-4 3h8m-8 3h8m-8 3h5"/></svg>
